icons/folder_type_src_opened.svg

<svg xmlns="http://www.w3.org/2000/svg" viewBox="0 0 32 32"><path d="M27.4 5.5h-9.2l-2.1 4.2H4.3v16.8h25.2v-21Zm0 18.7H6.6V11.8h20.8Zm0-14.5h-8.2l1-2.1h7.1v2.1Z" style="fill:#2a8243"/><path d="M25.7 13.7H.5l3.8 12.8h25.2l-3.8-12.8z" style="fill:#2a8243"/><path d="M19.146 30.989a.9.9 0 0 1-.207-.025 1.041 1.041 0 0 1-.726-1.213l2.709-14.431a1.037 1.037 0 0 1 .444-.683.894.894 0 0 1 .7-.122 1.043 1.043 0 0 1 .727 1.213L20.077 30.16a1.033 1.033 0 0 1-.442.681.9.9 0 0 1-.489.148ZM24.578 28.944h-.068a.931.931 0 0 1-.668-.377 1.1 1.1 0 0 1 .1-1.419l4.658-4.553-4.638-4.239a1.1 1.1 0 0 1-.141-1.416.937.937 0 0 1 .661-.4.9.9 0 0 1 .709.237l5.47 5a1.1 1.1 0 0 1 .144 1.416 1.061 1.061 0 0 1-.142.163l-5.447 5.324a.916.916 0 0 1-.638.264ZM16.423 28.947a.914.914 0 0 1-.639-.267l-5.452-5.327a.9.9 0 0 1-.132-.153 1.094 1.094 0 0 1 .141-1.414l5.471-5a.881.881 0 0 1 .7-.238.941.941 0 0 1 .665.4 1.1 1.1 0 0 1-.14 1.417L12.4 22.6l4.659 4.551a1.093 1.093 0 0 1 .1 1.419.927.927 0 0 1-.669.377Z" style="fill:#06cc14"/></svg>

<svg xmlns="http://www.w3.org/2000/svg" viewBox="0 0 32 32"><title>folder_type_src_opened</title><path d="M27.4,5.5H18.2L16.1,9.7H4.3V26.5H29.5V5.5Zm0,18.7H6.6V11.8H27.4Zm0-14.5H19.2l1-2.1h7.1V9.7Z" style="fill:#2a8243"/><polygon points="25.7 13.7 0.5 13.7 4.3 26.5 29.5 26.5 25.7 13.7" style="fill:#2a8243"/><path d="M19.146,30.989a.9.9,0,0,1-.207-.025,1.041,1.041,0,0,1-.726-1.213L20.922,15.32a1.037,1.037,0,0,1,.444-.683.894.894,0,0,1,.7-.122,1.043,1.043,0,0,1,.727,1.213L20.077,30.16a1.033,1.033,0,0,1-.442.681A.9.9,0,0,1,19.146,30.989Z" style="fill:#06cc14"/><path d="M24.578,28.944l-.068,0a.931.931,0,0,1-.668-.377,1.1,1.1,0,0,1,.1-1.419L28.6,22.595l-4.638-4.239a1.1,1.1,0,0,1-.141-1.416.937.937,0,0,1,.661-.4.9.9,0,0,1,.709.237l5.47,5a1.1,1.1,0,0,1,.144,1.416,1.061,1.061,0,0,1-.142.163L25.216,28.68A.916.916,0,0,1,24.578,28.944Z" style="fill:#06cc14"/><path d="M16.423,28.947a.914.914,0,0,1-.639-.267l-5.452-5.327A.9.9,0,0,1,10.2,23.2a1.094,1.094,0,0,1,.141-1.414l5.471-5a.881.881,0,0,1,.7-.238.941.941,0,0,1,.665.4,1.1,1.1,0,0,1-.14,1.417L12.4,22.6l4.659,4.551a1.093,1.093,0,0,1,.1,1.419.927.927,0,0,1-.669.377Z" style="fill:#06cc14"/></svg>
